X: 022048
T: Ballyconneely
C: BB 11/05
N: 211
L: 1/8
M: 6/8
R: jig
Q: 1/4=175
K: A
A | "A" cBc "Bm" BAB | "A" cBA "D" FEF |\
"A" Ace "D" faf | "A" ecA "E7" B2d |
"A" cBc "Bm" BAB | "A" cBA "F#m" FEF |\
"D" DFA "E" EGB | "A" cAA A2 :|
B| "A" Ace aba | "D" fga "A" ecA |\
"Bm" Bcd "E"efg | "A" aec "E"B2d |
"A" cea aec | "Bm" BAB "F#m" cAF |\
"D" DFA "E" EGB | "A" cAA A2 :|
